images/vk_color_white.svg

<svg width="48" height="48" viewBox="0 0 48 48" fill="none" xmlns="http://www.w3.org/2000/svg">
<g clip-path="url(#clip0_1106_5)">
<path d="M0 23.04C0 12.1788 0 6.74826 3.37413 3.37413C6.74826 0 12.1788 0 23.04 0H24.96C35.8212 0 41.2517 0 44.6259 3.37413C48 6.74826 48 12.1788 48 23.04V24.96C48 35.8212 48 41.2517 44.6259 44.6259C41.2517 48 35.8212 48 24.96 48H23.04C12.1788 48 6.74826 48 3.37413 44.6259C0 41.2517 0 35.8212 0 24.96V23.04Z" fill="#4F4F4F"/>
<path d="M25.54 34.5801C14.6 34.5801 8.3601 27.0801 8.1001 14.6001H13.5801C13.7601 23.7601 17.8 27.6401 21 28.4401V14.6001H26.1602V22.5001C29.3202 22.1601 32.6398 18.5601 33.7598 14.6001H38.9199C38.0599 19.4801 34.4599 23.0801 31.8999 24.5601C34.4599 25.7601 38.5601 28.9001 40.1201 34.5801H34.4399C33.2199 30.7801 30.1802 27.8401 26.1602 27.4401V34.5801H25.54Z" fill="white"/>
</g>
<defs>
<clipPath id="clip0_1106_5">
<rect width="48" height="48" fill="white"/>
</clipPath>
</defs>
</svg>

<svg width="48" height="48" fill="none" xmlns="http://www.w3.org/2000/svg"><g clip-path="url(#a)"><path d="M0 23.04C0 12.179 0 6.748 3.374 3.374 6.748 0 12.18 0 23.04 0h1.92c10.861 0 16.292 0 19.666 3.374C48 6.748 48 12.18 48 23.04v1.92c0 10.861 0 16.292-3.374 19.666C41.252 48 35.82 48 24.96 48h-1.92c-10.861 0-16.292 0-19.666-3.374C0 41.252 0 35.82 0 24.96v-1.92Z" fill="#4F4F4F"/><path d="M25.54 34.58c-10.94 0-17.18-7.5-17.44-19.98h5.48c.18 9.16 4.22 13.04 7.42 13.84V14.6h5.16v7.9c3.16-.34 6.48-3.94 7.6-7.9h5.16c-.86 4.88-4.46 8.48-7.02 9.96 2.56 1.2 6.66 4.34 8.22 10.02h-5.68c-1.22-3.8-4.26-6.74-8.28-7.14v7.14h-.62Z" fill="#fff"/></g><defs><clipPath id="a"><path fill="#fff" d="M0 0h48v48H0z"/></clipPath></defs></svg>
